X: 421
T: Yaochuan hong lai yishen hong
%%abc-version 2.0
%%abcx-abcm2ps-target-version 5.9.1 (29 Sep 2008)
%%abc-creator hum2abc beta
%%abcx-conversion-date 2013/10/02 07:52:30
%%abc-edited-by Helmut Schaffrath
%%humdrum-veritas 3379031151
%%humdrum-veritas-data 1421440674
%%continueall 1
%%barnumbers 0
L: 1/8
M: 2/4
K: F
d> d f d [I:setbarnb 1]| 
cA3 | 
d2f d | 
cA3 | 
d> d f d | 
cA2G | 
D> A G F | 
GD3 |]  



